!!!COM: Bach, Johann Sebastian
!!!OTL: 157. Wo Gott zum Haus nicht gibt
!!!ONM: No. 157
!!!OCL: Erk
!!!SCA: BWV 438
!!!YOE: Riemenschneider, Albert
!!!OPR: 371 Harmonized Chorales and 69 Chorale Melodies with Figured Bass
!!!OPT: Bach Chorale Harmonizations
**harm	**root	**kern	**kern	**kern	**kern
!	!	!bass	!tenor	!alto	!sprno
*Iorgan	*Iorgan	*Iorgan	*Iorgan	*Iorgan	*Iorgan
*k[]	*k[]	*k[]	*k[]	*k[]	*k[]
*C:	*C:	*C:	*C:	*C:	*C:
*met(c)	*met(c)	*met(c)	*met(c)	*met(c)	*met(c)
*M4/4	*M4/4	*M4/4	*M4/4	*M4/4	*M4/4
*MM60	*MM60	*MM60	*MM60	*MM60	*MM60
I	4FF	8C	8E	4G	4c
.	.	8D	8F	.	.
=1	=1	=1	=1	=1	=1
Ib	4FF	8E	8G	8c	4g
.	.	8F	8A	8d	.
iiib	8AA	4G	4B	8e	8g
V7	8CC	.	.	[8d	8f
I	4FF	4C	4G	8d]	4e
.	.	.	.	[8c	.
V	4CC	4GG	4G	8c]	4d
.	.	.	.	8B	.
=2	=2	=2	=2	=2	=2
I	4FF	4C	4G	8c	4e
.	.	.	.	8B	.
II	4GG	4D	4D	4A	4f#
V;	4CC;	4GG;	4D;	4B;	4g;
Vb	4CC	4BB	4G	[4d	4g
=3	=3	=3	=3	=3	=3
I	4FF	4C	[4G	8d]	4e
.	.	.	.	8c	.
Vb	8CC	8BB	8G]	8d	4g
iiib	8AA	8GG	8B	[8e	.
IV7b	8BB-	8AA	8c	8e]	4f
ii	8GG	8D	8A	16d	.
.	.	.	.	16c	.
Vb	4CC	8BB	4G	[4d	4g
.	.	8GG	.	.	.
=4	=4	=4	=4	=4	=4
I	4FF	4C	4G	8d]	4e
.	.	.	.	4c	.
V	4CC	4GG	8G	.	4d
.	.	.	8F	8B	.
I;	4FF;	4CC;	4E;	4G;	4c;
I	4FF	4C	4E	4c	4g
=5	=5	=5	=5	=5	=5
!!linebreak: 2
IV	4BB-	8FF	4F	4c	4a
.	.	8GG	.	.	.
IVb	4BB-	8AA	8C	4c	4a
.	.	8BB	8D	.	.
I	4FF	8C	4E	4.G	4e
.	.	8D	.	.	.
Ib	8FF	8E	8c	.	4g
viioD7/ii	8FF#	8C#	8B-	[8e	.
=6	=6	=6	=6	=6	=6
ii	4GG	8D	4A	8e]	4f
.	.	8E	.	16d	.
.	.	.	.	16c#	.
iib	4GG	8F	4A	[4d	4f
.	.	8G	.	.	.
V/ii;	4DD;	4A;	4A;	8d]	4e;
.	.	.	.	8c#;	.
vi	4DD	4AA	4A	4e	4cc
=7	=7	=7	=7	=7	=7
iii	4AA	4E	4G	8e	4b
.	.	.	.	8d	.
IV	4BB-	4F	8A	8c	4a
.	.	.	8B	8d	.
I	4FF	8C	4c	8e	4.g
.	.	8BB	.	8d	.
vi7	4DD	4AA	4E	4c	.
.	.	.	.	.	8a
=8	=8	=8	=8	=8	=8
ii7	4GG	4D	4.F	4.c	8f
.	.	.	.	.	8e
V	4CC	4GG	.	.	4d
.	.	.	16G	8B	.
.	.	.	16F	.	.
I;	4FF;	4C;	4E;	4G;	4c;
==	==	==	==	==	==
*-	*-	*-	*-	*-	*-
!!!CDT: 1685/3//-1750/7/28
!!!OCY: Deutschland
!!!AGN: chorale
!!!AST: Baroque
!!!AIN: vox
!!!YOY: 1941
!!!PPP: New York; London
!!!PPR: G. Schirmer
!!!ENC: David Huron
!!!EED: David Huron
!!!YEN: United States of America
!!!YER: 1992
!!!YEC: Copyright 1992 David Huron
!!!YEM: Rights to all derivative electronic formats reserved.
!!!YER: March 20, 1996
!!!AMT: simple quadruple
!!!EEV: 1.1
!!chor2scor: -l 2 -s 0.6 -o %b.pmx
